src/android-contacts.svg

<?xml version="1.0" encoding="utf-8"?>
<!-- Generated by IcoMoon.io -->
<!DOCTYPE svg PUBLIC "-//W3C//DTD SVG 1.1//EN" "http://www.w3.org/Graphics/SVG/1.1/DTD/svg11.dtd">
<svg version="1.1" xmlns="http://www.w3.org/2000/svg" xmlns:xlink="http://www.w3.org/1999/xlink" width="512" height="512" viewBox="0 0 512 512">
<path fill="#000000" d="M239.208 343.937c-17.78 10.103-38.342 15.876-60.255 15.876-21.909 0-42.467-5.771-60.246-15.87-47.163 14.388-76.064 62.057-86.707 104.057h293.912c-10.639-42-39.537-89.683-86.704-104.063z"></path>
<path fill="#000000" d="M178.953 120.035c-58.479 0-105.886 47.394-105.886 105.858s47.407 105.857 105.886 105.857c58.479 0 105.886-47.394 105.886-105.857 0-58.464-47.408-105.858-105.886-105.858zM178.953 306.523c-33.671 0-62.445-22.513-73.997-50.523h147.994c-11.554 28.011-40.326 50.523-73.997 50.523z"></path>
<path fill="#000000" d="M322.602 384h157.398c-10.638-42-39.537-81.691-86.703-96.072-17.781 10.104-38.343 15.873-60.256 15.873-14.823 0-29.024-2.654-42.168-7.49-7.445 12.47-16.927 25.592-27.974 34.906 26.346 10.137 46.247 32.783 59.703 52.783z"></path>
<path fill="#000000" d="M306.545 200h100.493c-11.554 28-40.327 50.293-73.997 50.293-8.875 0-17.404-1.692-25.375-4.51-1.338 8.709-3.543 17.070-6.52 25.118 10.066 3.174 20.779 4.862 31.895 4.862 58.479 0 105.886-47.41 105.886-105.872 0-58.465-47.407-105.866-105.886-105.866-37.49 0-70.427 19.703-89.243 49.090 31.809 18.268 55.163 49.885 62.747 86.885z"></path>
</svg>

<?xml version="1.0" encoding="utf-8"?>
<!-- Generator: Adobe Illustrator 16.2.1, SVG Export Plug-In . SVG Version: 6.00 Build 0)  -->
<!DOCTYPE svg PUBLIC "-//W3C//DTD SVG 1.1//EN" "http://www.w3.org/Graphics/SVG/1.1/DTD/svg11.dtd">
<svg version="1.1" id="Layer_1" xmlns="http://www.w3.org/2000/svg" xmlns:xlink="http://www.w3.org/1999/xlink" x="0px" y="0px"
	 width="512px" height="512px" viewBox="0 0 512 512" enable-background="new 0 0 512 512" xml:space="preserve">
<g>
	<g>
		<path d="M239.208,343.937c-17.78,10.103-38.342,15.876-60.255,15.876c-21.909,0-42.467-5.771-60.246-15.87
			C71.544,358.331,42.643,406,32,448h293.912C315.273,406,286.375,358.317,239.208,343.937z"/>
		<g>
			<path d="M178.953,120.035c-58.479,0-105.886,47.394-105.886,105.858c0,58.464,47.407,105.857,105.886,105.857
				c58.479,0,105.886-47.394,105.886-105.857C284.839,167.429,237.431,120.035,178.953,120.035z M178.953,306.523
				c-33.671,0-62.445-22.513-73.997-50.523H252.95C241.396,284.011,212.624,306.523,178.953,306.523z"/>
		</g>
	</g>
	<g>
		<g>
			<path d="M322.602,384H480c-10.638-42-39.537-81.691-86.703-96.072c-17.781,10.104-38.343,15.873-60.256,15.873
				c-14.823,0-29.024-2.654-42.168-7.49c-7.445,12.47-16.927,25.592-27.974,34.906C289.245,341.354,309.146,364,322.602,384z"/>
		</g>
		<path d="M306.545,200h100.493c-11.554,28-40.327,50.293-73.997,50.293c-8.875,0-17.404-1.692-25.375-4.51
			c-1.338,8.709-3.543,17.07-6.52,25.118c10.066,3.174,20.779,4.862,31.895,4.862c58.479,0,105.886-47.41,105.886-105.872
			c0-58.465-47.407-105.866-105.886-105.866c-37.49,0-70.427,19.703-89.243,49.09C275.607,131.383,298.961,163,306.545,200z"/>
	</g>
</g>
</svg>
